X: 1
T: The Black Joke(r)
T: Black Jack
R: jig
O: trad England
B: One Thousand English Country Dance Tunes, M. Raven, p.116
B: English Dance Airs (Book 3), Nan Fleming-Williams and Pat Shaw, p. 7
Z: John Chambers <jc@trillian.mit.edu>
N: Morris Ring (two versions)
N: Fleming-Williams & Shaw, English Dance Airs (Book 3), 1968
N: Raven, p.116 (1984)
M: 6/8
L: 1/8
P: AAB
K: G
P: A
|: D \
| "G"D>GG GFG | "Am"AcB "D7"AGF \
| "G"G>AB "(Em)"dcB | "Am"AcB "D7"AGF \
| "G"[GG]>AB "C"[EE]>FG | "D7"DEF "G"G2 :|
P: B
[| c \
| "G"B>dd d>Bd | "C"e>ce "D7"d2c \
| "G"B>GB dBd | "A7"e>ge "D7"d2c | "G"B2B BAG |
| "Am"AcB "D7"AGF | "G"G>AB "(Em)"dcB \
| "Am"AcB "D7"AGF | "G"[GG]>AB "C"[EE]>FG | "D7"DEF "G"G2 |]
%%sep 5 5 234
K:C
x8 x8 x8 x8 x8 x8 x8 x8 |
x8 x8 x8 x8 x8 x8 x8 x8 |
x8 x8 x8 x8 x8 x8 x8 x8 |
x8 x8 x8 x8 x8 x8 x8 x8 |
x8 x8 x8 x8 x8 x8 x8 x8 |
